X: 9126
T: Planxty Phelim Meehan (with piano acc.)
C: BB
R: jig
Q: 1/8=320
M: 6/8
L: 1/8
V: 1 program 1 40 %fiddle
V: 2 volume=70 clef=bass m=D program 1 01
K: G
[V:1] D | "G"DEG BAB | "Em7"edB "Am7"AGE | "G"DEG BAB | "Em7"edB "D"d3  |
[V:2] z|G,,2[GBD]D,2[GBD]|E,2[EGB]A,,2[GCE]|G,,2[GBD]D,2[GBD]|E,2[EGB]D,2[AFD]|
%
[V:1] "G"DEG BAB | "Em7"edB "Am7"AGE | "G"GAB "C"GEG | "D"DB,A, "G"G,2 :|
[V:2] G,,2[GBD]D,2[GBD]|E,2[DGB]A,,2[GCE]|G,,2[GBD]C,2[EGC]|D,2[AFD][G,2B,2D2]:|
%
[V:1] d | "G"gfe dBG | "Em"BdB "Am7"AGE | "G"gfe "D"dBA | "G"GBd "Em"e2 d |
[V:2] z|G,,2[GBD]D,2[GBD]|E,2[EGB]A,,2[GCE]|G,,2[GBD]D,2[AFD]|G,,2[GBD]E,2[EGB]|
%
[V:1] "G"gfe dBG | "Em"BdB "Am7"AGE | "G"DEG "D7"Adc | "G"BGF "G"G2 :|
[V:2] G,,2[GBD]D,2[GBD]|E,2[EGB]A,,2[GCE]|G,,2[GBD]D,2[AFC]|G,,2[GBD][G,2B,2D2]:|
%
[V:1] e |"G"gdd Bdd | "C"gfe "G"dBd | "G"gdd "Am"cBA | "G"GBd "Em"e2 d |
[V:2] z |G,,2[GBD]D,2[GBD]|C,2[EGC]G,,2[GBD]|G,,2[GBD]A,,2[ACE]|G,,2[GBD]E,2[EGB]|
%
[V:1] "G"gdd Bdd | "C"gfe "D"dBA | "G"GAB "C"GEG |"D"DB,A, "G"G,2 :|
[V:2] G,,2[GBD]D,2[GBD]|C,2[EGC]D,2[AFD]|G,,2[GBD]C,2[EGC]|D,2[AFD][G,2B,2D2]:|
%%%%%tune repeat
[V:1] D | "G"DEG BAB | "Em7"edB "Am7"AGE | "G"DEG BAB | "Em7"edB "D"d3  |
[V:2] z|G,,2[GBD]D,2[GBD]|E,2[EGB]A,,2[GCE]|G,,2[GBD]D,2[GBD]|E,2[EGB]D,2[AFD]|
%
[V:1] "G"DEG BAB | "Em7"edB "Am7"AGE | "G"GAB "C"GEG | "D"DB,A, "G"G,2 :|
[V:2] G,,2[GBD]D,2[GBD]|E,2[DGB]A,,2[GCE]|G,,2[GBD]C,2[EGC]|D,2[AFD][G,2B,2D2]:|
%
[V:1] d | "G"gfe dBG | "Em"BdB "Am7"AGE | "G"gfe "D"dBA | "G"GBd "Em"e2 d |
[V:2] z|G,,2[GBD]D,2[GBD]|E,2[EGB]A,,2[GCE]|G,,2[GBD]D,2[AFD]|G,,2[GBD]E,2[EGB]|
%
[V:1] "G"gfe dBG | "Em"BdB "Am7"AGE | "G"DEG "D7"Adc | "G"BGF "G"G2 :|
[V:2] G,,2[GBD]D,2[GBD]|E,2[EGB]A,,2[GCE]|G,,2[GBD]D,2[AFC]|G,,2[GBD][G,2B,2D2]:|
%
[V:1] e |"G"gdd Bdd | "C"gfe "G"dBd | "G"gdd "Am"cBA | "G"GBd "Em"e2 d |
[V:2] z |G,,2[GBD]D,2[GBD]|C,2[EGC]G,,2[GBD]|G,,2[GBD]A,,2[ACE]|G,,2[GBD]E,2[EGB]|
%
[V:1] "G"gdd Bdd | "C"gfe "D"dBA | "G"GAB "C"GEG |1 "D"DB,A, "G"G,2 :|2\
"D"DB,A, "G"HG,3 ||
[V:2] G,,2[GBD]D,2[GBD]|C,2[EGC]D,2[AFD]|G,,2[GBD]C,2[EGC]|1 D,2[AFD][G,2B,2D2]:|2\
D,2[AFD]H[G,,3B,3D,3] ||

%%%%%%%%%%%%%%%%%%%%%%%%%%%%%%%%%%%%%%%%%%%

